src/assets/icons/9-icon-angular.svg

<?xml version="1.0" encoding="utf-8"?>
<svg style="enable-background:new 0 0 250 250" viewBox="0 0 250 250" xmlns="http://www.w3.org/2000/svg">
  <path d="M 129.551 0.209 L 13.266 41.676 L 31.002 195.433 L 129.551 250.015 L 228.1 195.433 L 245.835 41.676 L 129.551 0.209 Z" style="fill: rgb(221, 0, 49);"/>
  <path d="M 129.551 0.209 L 129.551 27.936 L 129.551 27.813 L 129.551 250.015 L 228.1 195.433 L 245.835 41.676 L 129.551 0.209 Z" style="fill: rgb(195, 0, 47);"/>
  <path d="M 129.551 27.813 L 56.857 190.811 L 83.961 190.811 L 98.575 154.34 L 160.277 154.34 L 174.891 190.811 L 201.994 190.811 L 129.551 27.813 Z M 150.784 131.858 L 108.318 131.858 L 129.551 80.771 L 150.784 131.858 Z" style="fill: rgb(255, 255, 255);"/>
</svg>

<svg xmlns="http://www.w3.org/2000/svg" style="enable-background:new 0 0 250 250" viewBox="0 0 250 250"><path d="M129.55.2 13.27 41.69 31 195.43l98.55 54.58 98.55-54.58 17.74-153.75L129.55.2Z" style="fill:#dd0031"/><path d="M129.55.2v27.74-.13 222.2l98.55-54.58 17.74-153.75L129.55.2Z" style="fill:#c3002f"/><path d="m129.55 27.81-72.7 163h27.11l14.62-36.47h61.7l14.61 36.47H202l-72.44-163Zm21.23 104.05h-42.46l21.23-51.09 21.23 51.09Z" style="fill:#fff"/></svg>
